actualanswers/design/images/icon/file.svg

<svg width="24" height="24" fill="none" xmlns="http://www.w3.org/2000/svg"><path d="M16 0H8C6.9 0 6 .9 6 2v16c0 1.1.9 2 2 2h12c1.1 0 2-.9 2-2V6l-6-6zm4 18H8V2h7v5h5v11zM4 4v18h16v2H4c-1.1 0-2-.9-2-2V4h2zm6 6v2h8v-2h-8zm0 4v2h5v-2h-5z" fill="#0B1129"/></svg>

<svg width="24" height="24" viewBox="0 0 24 24" fill="none" xmlns="http://www.w3.org/2000/svg">
<path d="M16 0H8C6.9 0 6 0.9 6 2V18C6 19.1 6.9 20 8 20H20C21.1 20 22 19.1 22 18V6L16 0ZM20 18H8V2H15V7H20V18ZM4 4V22H20V24H4C2.9 24 2 23.1 2 22V4H4ZM10 10V12H18V10H10ZM10 14V16H15V14H10Z" fill="#0B1129"/>
</svg>
